src/main/resources/icons/GithubIcons/META-INF/pluginIcon.svg

<svg xmlns="http://www.w3.org/2000/svg" xmlns:xlink="http://www.w3.org/1999/xlink" width="40" height="40" viewBox="0 0 40 40">
  <defs>
    <polygon id="github-a" points=".001 .001 32 .001 32 32 .001 32"/>
  </defs>
  <g fill="none" fill-rule="evenodd" transform="translate(4 4)">
    <mask id="github-b" fill="#fff">
      <use xlink:href="#github-a"/>
    </mask>
    <path fill="#000" d="M6.2505,19.4375 C6.1665,19.3545 6.1665,19.2705 6.2505,19.1875 C6.4165,19.0205 6.6255,18.9585 6.8755,19.0005 C7.1255,19.0415 7.2715,19.0835 7.3125,19.1255 C7.6045,19.2505 7.9275,19.5315 8.2815,19.9685 C8.6355,20.4065 8.9165,20.7085 9.1255,20.8745 C10.1255,21.7085 11.1465,21.7705 12.1875,21.0625 C12.2715,20.7705 12.4065,20.5205 12.5935,20.3125 C12.7805,20.1045 12.9585,19.9585 13.1245,19.8745 C13.2915,19.7915 13.5835,19.6665 14.0005,19.4995 C12.6245,19.3755 11.5105,19.1355 10.6565,18.7815 C9.8025,18.4265 9.1245,17.9795 8.6245,17.4375 C7.9585,16.6875 7.5525,15.7085 7.4055,14.5005 C7.2605,13.2915 7.3545,12.1875 7.6875,11.1875 C7.9375,10.5625 8.2915,9.9995 8.7495,9.4995 C8.4165,8.4585 8.4795,7.2705 8.9375,5.9375 C10.2715,6.0205 11.4795,6.4795 12.5625,7.3125 C14.6465,6.7705 16.8125,6.7495 19.0625,7.2495 C19.3545,7.0415 19.8025,6.7815 20.4055,6.4685 C21.0105,6.1565 21.7715,5.9795 22.6875,5.9375 C22.8545,6.3955 22.9685,6.9375 23.0305,7.5625 C23.0935,8.1875 23.0625,8.7705 22.9375,9.3125 C23.8965,10.3125 24.3965,11.6455 24.4375,13.3125 C24.4375,14.6455 24.2085,15.7495 23.7495,16.6245 C23.2915,17.5005 22.4795,18.2295 21.3125,18.8125 C20.5215,19.1875 19.4795,19.4165 18.1875,19.4995 C18.7715,19.7915 19.1975,20.0935 19.4685,20.4065 C19.7395,20.7185 19.9165,21.2085 20.0005,21.8755 L20.0005,23.8435 L20.0625,25.7495 C20.1875,25.9585 20.3335,26.1355 20.5005,26.2815 C20.6665,26.4265 20.8135,26.5315 20.9385,26.5935 C21.0625,26.6565 21.1045,26.7495 21.0625,26.8745 C21.0215,26.9995 20.8545,27.0625 20.5635,27.0625 C19.8545,27.0625 19.2915,26.8125 18.8755,26.3125 C18.7505,26.1045 18.6885,25.8545 18.6885,25.5625 L18.6885,22.5625 C18.6885,22.2295 18.6045,21.9895 18.4385,21.8435 C18.2715,21.6985 18.1045,21.6045 17.9385,21.5625 L17.9385,25.4995 C17.9385,26.2085 18.0215,26.6665 18.1885,26.8745 C18.3545,27.0835 18.4585,27.2915 18.5005,27.5005 C18.5415,27.5415 18.5105,27.5735 18.4065,27.5935 C18.3025,27.6145 18.1255,27.5835 17.8755,27.5005 C17.3335,27.3745 16.9585,27.0935 16.7505,26.6565 C16.5415,26.2185 16.4385,25.7495 16.4385,25.2495 L16.4385,21.3745 L15.6255,21.3745 L15.6255,25.2495 C15.6255,25.7495 15.5215,26.2295 15.3125,26.6875 C15.0215,27.2705 14.4795,27.5835 13.6875,27.6255 C13.5625,27.5835 13.5005,27.5415 13.5005,27.5005 C13.5415,27.4585 13.6665,27.2495 13.8755,26.8745 C13.9165,26.7915 13.9695,26.6245 14.0315,26.3745 C14.0945,26.1245 14.1255,25.8335 14.1255,25.4995 L14.1255,21.5625 C13.9585,21.6045 13.8025,21.6985 13.6565,21.8435 C13.5105,21.9895 13.4375,22.2295 13.4375,22.5625 L13.4375,25.5625 C13.4375,25.8545 13.3755,26.1045 13.2505,26.3125 C12.8755,26.8125 12.3125,27.0625 11.5625,27.0625 C11.2715,27.0625 11.1045,26.9995 11.0625,26.8745 C11.0215,26.7915 11.0315,26.7185 11.0945,26.6565 C11.1565,26.5935 11.2505,26.5205 11.3755,26.4375 C11.5005,26.3545 11.5835,26.2915 11.6255,26.2495 C11.7915,26.1245 11.9165,25.9585 12.0005,25.7495 C12.1255,25.5835 12.1565,25.1455 12.0945,24.4375 C12.0315,23.7295 12.0215,23.2705 12.0625,23.0625 C10.9795,23.4375 9.8755,23.2505 8.7505,22.5005 C8.4165,22.1665 8.0835,21.6875 7.7505,21.0625 C7.5005,20.6045 7.0005,20.0625 6.2505,19.4375 M1.7505,15.9995 C1.7505,19.9165 3.1465,23.2705 5.9385,26.0625 C8.7295,28.8545 12.0835,30.2505 16.0005,30.2505 C19.9165,30.2505 23.2715,28.8545 26.0625,26.0625 C28.8545,23.2705 30.2505,19.9165 30.2505,15.9995 C30.2505,12.0835 28.8545,8.7295 26.0625,5.9375 C23.2715,3.1455 19.9165,1.7505 16.0005,1.7505 C12.0835,1.7505 8.7295,3.1455 5.9385,5.9375 C3.1465,8.7295 1.7505,12.0835 1.7505,15.9995 M0.0005,15.9995 C0.0005,11.5835 1.5635,7.8125 4.6885,4.6875 C7.8125,1.5625 11.5835,0.0005 16.0005,0.0005 C20.4165,0.0005 24.1875,1.5625 27.3125,4.6875 C30.4375,7.8125 32.0005,11.5835 32.0005,15.9995 C32.0005,20.4165 30.4375,24.1875 27.3125,27.3125 C24.1875,30.4375 20.4165,32.0005 16.0005,32.0005 C11.5835,32.0005 7.8125,30.4375 4.6885,27.3125 C1.5635,24.1875 0.0005,20.4165 0.0005,15.9995" mask="url(#github-b)"/>
  </g>
</svg>

<svg xmlns="http://www.w3.org/2000/svg" xmlns:xlink="http://www.w3.org/1999/xlink" width="40" height="40" viewBox="0 0 40 40"><rect id="frame" width="40" height="40" fill="none"/><defs><path id="a" d="M.001.001H32V32H.001z"/></defs><g fill="none" fill-rule="evenodd" transform="translate(4 4)"><mask id="b" fill="#fff"><use xlink:href="#a"/></mask><path fill="#000" d="M6.25 19.438c-.083-.083-.083-.168 0-.25A.674.674 0 0 1 6.875 19c.25.041.396.084.438.125.292.125.615.407.968.843.354.439.635.74.845.907 1 .834 2.02.895 3.062.188a1.88 1.88 0 0 1 .405-.75c.188-.208.366-.354.531-.438.167-.084.46-.209.877-.375-1.377-.125-2.49-.364-3.345-.718-.854-.355-1.532-.802-2.032-1.345-.666-.75-1.072-1.729-1.219-2.937-.144-1.209-.05-2.313.282-3.313A5.51 5.51 0 0 1 8.75 9.5c-.333-1.04-.27-2.229.188-3.562 1.335.083 2.543.542 3.626 1.375 2.083-.542 4.25-.563 6.5-.063.292-.207.74-.467 1.343-.78.605-.313 1.366-.49 2.282-.532.167.458.28 1 .343 1.625a5.359 5.359 0 0 1-.093 1.75c.959 1 1.459 2.334 1.5 4 0 1.334-.23 2.438-.688 3.313-.459.875-1.27 1.605-2.438 2.188-.79.375-1.832.604-3.125.687.584.291 1.01.593 1.281.907.271.311.448.802.532 1.468v1.968l.063 1.907c.125.209.27.386.438.532.165.145.313.25.438.311.123.064.166.157.123.282-.04.125-.207.188-.498.188-.71 0-1.273-.25-1.689-.75a1.43 1.43 0 0 1-.186-.75v-3c0-.333-.084-.573-.25-.72a1.24 1.24 0 0 0-.5-.28V25.5c0 .709.082 1.166.25 1.375.166.209.27.416.311.625.041.041.01.073-.093.093-.105.021-.282-.01-.532-.093-.541-.125-.916-.407-1.125-.843a3.224 3.224 0 0 1-.311-1.407v-3.875h-.813v3.875c0 .5-.104.98-.313 1.438-.292.582-.834.896-1.626.938-.124-.043-.186-.085-.186-.126.04-.041.165-.25.375-.625.04-.084.094-.25.155-.5.063-.25.095-.541.095-.875v-3.938a1.021 1.021 0 0 0-.47.281c-.146.146-.219.387-.219.72v3c0 .292-.061.542-.186.75-.375.5-.938.75-1.688.75-.292 0-.459-.063-.5-.188-.042-.084-.032-.157.031-.218.063-.064.157-.137.282-.22.125-.082.208-.146.25-.188.165-.124.29-.29.375-.5.125-.165.155-.604.094-1.311-.064-.708-.074-1.168-.033-1.375-1.082.375-2.186.188-3.311-.563-.335-.334-.667-.813-1-1.438-.25-.457-.75-1-1.5-1.625M1.75 16c0 3.917 1.396 7.271 4.188 10.063C8.729 28.855 12.084 30.25 16 30.25c3.916 0 7.271-1.395 10.063-4.188C28.855 23.27 30.25 19.916 30.25 16c0-3.915-1.396-7.27-4.189-10.062C23.273 3.146 19.916 1.75 16 1.75c-3.916 0-7.27 1.396-10.061 4.188C3.147 8.73 1.75 12.084 1.75 15.998M0 16C0 11.584 1.563 7.813 4.69 4.688 7.812 1.563 11.584 0 16 0s8.188 1.563 11.313 4.688S32 11.584 32 15.998c0 4.417-1.563 8.188-4.688 11.313S20.416 32.002 16 32.002c-4.416 0-8.188-1.563-11.311-4.688C1.563 24.188 0 20.416 0 16" mask="url(#b)"/></g></svg>
